build/flags/BurkinaFaso.svg

<svg xmlns="http://www.w3.org/2000/svg" fill="none" viewBox="0 0 28 28" focusable="false"><defs><filter id="Burkina_Faso_svg__a"><feColorMatrix values="0 0 0 0 1 0 0 0 0 1 0 0 0 0 1 0 0 0 1 0"/></filter></defs><mask id="Burkina_Faso_svg__b" width="28" height="20" x="0" y="4" maskUnits="userSpaceOnUse"><g filter="url(#Burkina_Faso_svg__a)"><rect width="28" height="20" y="4" fill="#FFF" rx="3"/><rect width="28" height="20" y="4" stroke="#969696" stroke-opacity="0" stroke-width="0" rx="3"/></g></mask><path fill="none" d="M0 0H28V28H0z"/><rect width="28" height="20" y="4" fill="#FFF" rx="3"/><rect width="28" height="20" y="4" rx="3"/><g mask="url(#Burkina_Faso_svg__b)"><path fill="#00B051" fill-rule="evenodd" d="M0 24L28 24L28 14.6667L0 14.6667L0 24Z"/><path d="M28 24L28 14.6667L0 14.6667L0 24L28 24Z"/><path fill="#FA494B" fill-rule="evenodd" d="M0 14.6667L28 14.6667L28 4L0 4L0 14.6667Z"/><path d="M28 14.6667L28 4L0 4L0 14.6667L28 14.6667Z"/><path fill="#FDD216" fill-rule="evenodd" d="M14 16.2267L11.6489 17.9028L12.5164 15.1488L10.1958 13.4306L13.0831 13.4046L14 10.6667L14.9169 13.4046L17.8042 13.4306L15.4836 15.1488L16.3511 17.9028L14 16.2267Z"/><path d="M11.6489 17.9028L12.5164 15.1488L10.1958 13.4306L13.0831 13.4046L14 10.6667L14.9169 13.4046L17.8042 13.4306L15.4836 15.1488L16.3511 17.9028L14 16.2267L11.6489 17.9028Z"/></g></svg>

<svg xmlns="http://www.w3.org/2000/svg" fill="none" viewBox="0 0 28 28" focusable="false"><path fill="none" d="M0 0h28v28H0z"/><rect width="28" height="20" y="4" fill="#FFF" rx="3"/><rect width="28" height="20" y="4" rx="3"/><mask id="Burkina_Faso_svg__a" width="28" height="20" x="0" y="4" mask-type="alpha" maskUnits="userSpaceOnUse"><rect width="28" height="20" y="4" fill="#FFF" rx="3"/><rect width="28" height="20" y="4" stroke="#979797" stroke-opacity="0" stroke-width="0" rx="3"/></mask><g mask="url(#Burkina_Faso_svg__a)"><path fill="#00B051" fill-rule="evenodd" d="M0 24h28v-9.34H0z"/><path d="M28 24v-9.34H0V24z"/></g><g mask="url(#Burkina_Faso_svg__a)"><path fill="#FA494B" fill-rule="evenodd" d="M0 14.66h28V4H0z"/><path d="M28 14.66V4H0v10.66z"/></g><g mask="url(#Burkina_Faso_svg__a)"><path fill="#FDD216" fill-rule="evenodd" d="m14 16.22-2.36 1.68.87-2.76-2.32-1.71 2.89-.03.92-2.74.91 2.74 2.89.03-2.32 1.71.87 2.76z"/><path d="m11.64 17.9.87-2.76-2.32-1.71 2.89-.03.92-2.74.91 2.74 2.89.03-2.32 1.71.87 2.76L14 16.22z"/></g></svg>
